public/img/iconoestetica.svg

<?xml version="1.0" standalone="no"?>
<!DOCTYPE svg PUBLIC "-//W3C//DTD SVG 1.0//EN" "http://www.w3.org/TR/2001/REC-SVG-20010904/DTD/svg10.dtd">
<svg xmlns="http://www.w3.org/2000/svg" xmlns:xlink="http://www.w3.org/1999/xlink" id="body_1" width="819" height="614">

<g transform="matrix(4.3330984 0 0 4.3330984 102.5 -0)">
    <path d="M36.8 124.7L32.1 124.7C 30.8 124.7 29.699999 123.6 29.699999 122.299995L29.699999 122.299995L29.699999 19.299995C 29.699999 17.999996 30.8 16.899996 32.1 16.899996L32.1 16.899996L36.8 16.899996C 38.1 16.899996 39.2 17.999996 39.2 19.299995L39.2 19.299995L39.2 122.299995C 39.2 123.7 38.2 124.7 36.8 124.7z" stroke="none" fill="#85A64C" fill-rule="nonzero" />
    <path d="M51.5 124.7L46.8 124.7C 45.5 124.7 44.399998 123.6 44.399998 122.299995L44.399998 122.299995L44.399998 19.299995C 44.399998 17.999996 45.499996 16.899996 46.8 16.899996L46.8 16.899996L51.5 16.899996C 52.8 16.899996 53.9 17.999996 53.9 19.299995L53.9 19.299995L53.9 122.299995C 53.9 123.7 52.8 124.7 51.5 124.7z" stroke="none" fill="#85A64C" fill-rule="nonzero" />
    <path d="M66.2 124.7L61.499996 124.7C 60.199997 124.7 59.099995 123.6 59.099995 122.299995L59.099995 122.299995L59.099995 19.299995C 59.099995 17.999996 60.199993 16.899996 61.499996 16.899996L61.499996 16.899996L66.2 16.899996C 67.5 16.899996 68.6 17.999996 68.6 19.299995L68.6 19.299995L68.6 122.299995C 68.6 123.7 67.5 124.7 66.2 124.7z" stroke="none" fill="#85A64C" fill-rule="nonzero" />
    <path d="M80.8 124.7L76.100006 124.7C 74.8 124.7 73.700005 123.6 73.700005 122.299995L73.700005 122.299995L73.700005 19.299995C 73.700005 17.999996 74.8 16.899996 76.100006 16.899996L76.100006 16.899996L80.8 16.899996C 82.100006 16.899996 83.200005 17.999996 83.200005 19.299995L83.200005 19.299995L83.200005 122.299995C 83.2 123.7 82.2 124.7 80.8 124.7z" stroke="none" fill="#85A64C" fill-rule="nonzero" />
    <path d="M95.5 124.7L90.8 124.7C 89.5 124.7 88.4 123.6 88.4 122.299995L88.4 122.299995L88.4 19.299995C 88.4 17.999996 89.5 16.899996 90.8 16.899996L90.8 16.899996L95.5 16.899996C 96.8 16.899996 97.9 17.999996 97.9 19.299995L97.9 19.299995L97.9 122.299995C 97.9 123.7 96.8 124.7 95.5 124.7z" stroke="none" fill="#85A64C" fill-rule="nonzero" />
    <path d="M110.2 124.7L105.5 124.7C 104.2 124.7 103.1 123.6 103.1 122.299995L103.1 122.299995L103.1 19.299995C 103.1 17.999996 104.2 16.899996 105.5 16.899996L105.5 16.899996L110.2 16.899996C 111.5 16.899996 112.6 17.999996 112.6 19.299995L112.6 19.299995L112.6 122.299995C 112.6 123.7 111.5 124.7 110.2 124.7z" stroke="none" fill="#85A64C" fill-rule="nonzero" />
</g>
</svg>

<?xml version="1.0" encoding="utf-8"?>
<!-- Generator: Adobe Illustrator 25.0.0, SVG Export Plug-In . SVG Version: 6.00 Build 0)  -->
<svg version="1.1" id="Capa_1" xmlns="http://www.w3.org/2000/svg" xmlns:xlink="http://www.w3.org/1999/xlink" x="0px" y="0px"
	 viewBox="0 0 141.7 141.7" style="enable-background:new 0 0 141.7 141.7;" xml:space="preserve">
<style type="text/css">
	.st0{fill:#85A64C;}
</style>
<path class="st0" d="M36.8,124.7h-4.7c-1.3,0-2.4-1.1-2.4-2.4v-103c0-1.3,1.1-2.4,2.4-2.4h4.7c1.3,0,2.4,1.1,2.4,2.4v103
	C39.2,123.7,38.2,124.7,36.8,124.7z"/>
<path class="st0" d="M51.5,124.7h-4.7c-1.3,0-2.4-1.1-2.4-2.4v-103c0-1.3,1.1-2.4,2.4-2.4h4.7c1.3,0,2.4,1.1,2.4,2.4v103
	C53.9,123.7,52.8,124.7,51.5,124.7z"/>
<path class="st0" d="M66.2,124.7h-4.7c-1.3,0-2.4-1.1-2.4-2.4v-103c0-1.3,1.1-2.4,2.4-2.4h4.7c1.3,0,2.4,1.1,2.4,2.4v103
	C68.6,123.7,67.5,124.7,66.2,124.7z"/>
<path class="st0" d="M80.8,124.7h-4.7c-1.3,0-2.4-1.1-2.4-2.4v-103c0-1.3,1.1-2.4,2.4-2.4h4.7c1.3,0,2.4,1.1,2.4,2.4v103
	C83.2,123.7,82.2,124.7,80.8,124.7z"/>
<path class="st0" d="M95.5,124.7h-4.7c-1.3,0-2.4-1.1-2.4-2.4v-103c0-1.3,1.1-2.4,2.4-2.4h4.7c1.3,0,2.4,1.1,2.4,2.4v103
	C97.9,123.7,96.8,124.7,95.5,124.7z"/>
<path class="st0" d="M110.2,124.7h-4.7c-1.3,0-2.4-1.1-2.4-2.4v-103c0-1.3,1.1-2.4,2.4-2.4h4.7c1.3,0,2.4,1.1,2.4,2.4v103
	C112.6,123.7,111.5,124.7,110.2,124.7z"/>
</svg>
